X:11
T: Pásztor ember vígan él
O: Nemespátró
Q: "Tempo guisto" 1/4=108
M:4/4
L:1/4
K:C
ddc>F  | A<A A z | 
ddc>F | A<A A z | 
d<d c>F | A<A F z | 
A<G F>C | D<D D z | 

